X: 22033
T: Kneebuckle, The
R: jig
M: 6/8
K: Adorian
e2 A eAA|ege edB|eAA e/f/ge|dBG A2 c/d/|
eAA e2 A|e/f/ge edB|def gfe|dB^G A2:|
aeA gdB|fd/e/f ecA|aea ge/f/g|fdc A2 c|
a2 e g2 d|fdf e2 A|dd/e/f gfe|dB^G A2:|

